X:235
T: ES RITT EIN GSELL SPAZIEREN
N: E0818
O: Europa, Mitteleuropa, Deutschland, Schlesien
R: Kilt - Lied
M: 2/4
L: 1/8
K: A
E | AECE | A2A
c | BGAF | E2z
E | cAcA | c2e
c | BGBG | B2d
d | ccBB | A2z

@@@ Tune index: 4548
